dist/assets/add.svg

<svg width="40" height="41" viewBox="0 0 40 41" fill="none" xmlns="http://www.w3.org/2000/svg">
<g id="add" clip-path="url(#clip0_0_553)">
<path id="Vector" d="M31.6667 22.1667H21.6667V32.1667H18.3334V22.1667H8.33337V18.8333H18.3334V8.83334H21.6667V18.8333H31.6667V22.1667Z" fill="#0073E6"/>
</g>
<defs>
<clipPath id="clip0_0_553">
<rect width="40" height="40" fill="white" transform="translate(0 0.5)"/>
</clipPath>
</defs>
</svg>

<svg xmlns="http://www.w3.org/2000/svg" width="40" height="41" fill="none"><g clip-path="url(#a)"><path fill="#0073E6" d="M31.667 22.167h-10v10h-3.334v-10h-10v-3.334h10v-10h3.334v10h10v3.334Z"/></g><defs><clipPath id="a"><path fill="#fff" d="M0 .5h40v40H0z"/></clipPath></defs></svg>
